X: 1636
T: Anne's Wals
R: waltz
M: 3/4
K: Dmajor
[M:8/8] FEDA2G FE|DCDA2C CD|B,FB,G2B FE|FEFGABAG:|
|:dcdA2G FE|DCDF2E DC|B,FB,G2B FE|FEF G2F E2:|
[K:F]|F>Bf e>fe dc|B>cB (2AF DF|Bdf e>fe dc|B>cB B3B2|
Bdf e>fe dc|B>cB (2AF DF|AcdfedcA|FcG^F3^F2|

